src/lib/packages/icons/src/assets/filled/music.svg

<svg width="24" height="24" viewBox="0 0 24 24" fill="none" xmlns="http://www.w3.org/2000/svg">
<path d="M19.5 4.53994V15.5089C19.5 15.5119 19.498 15.514 19.498 15.517C19.489 17.164 18.148 18.5009 16.5 18.5009C14.846 18.5009 13.5 17.1549 13.5 15.5009C13.5 13.8469 14.846 12.5009 16.5 12.5009C17.271 12.5009 17.968 12.8019 18.5 13.2809V8.1398L8.5 10.9398V18.4999C8.5 20.1539 7.154 21.4999 5.5 21.4999C3.846 21.4999 2.5 20.1539 2.5 18.4999C2.5 16.8459 3.846 15.4999 5.5 15.4999C6.271 15.4999 6.968 15.8009 7.5 16.2799V7.15786C7.5 5.92086 8.13097 5.09101 9.32397 4.75601L16.96 2.61685C17.712 2.40585 18.352 2.47781 18.812 2.82681C19.269 3.17381 19.5 3.74994 19.5 4.53994Z" fill="currentColor"/>
</svg>

<svg xmlns="http://www.w3.org/2000/svg" width="24" height="24" fill="none"><path fill="currentColor" d="M19.5 4.54v10.969l-.002.008a3.002 3.002 0 0 1-2.998 2.984c-1.654 0-3-1.346-3-3s1.346-3 3-3a2.98 2.98 0 0 1 2 .78V8.14l-10 2.8v7.56c0 1.654-1.346 3-3 3s-3-1.346-3-3 1.346-3 3-3a2.98 2.98 0 0 1 2 .78V7.158c0-1.237.631-2.067 1.824-2.402l7.636-2.14c.752-.21 1.392-.138 1.852.21.457.348.688.924.688 1.714Z"/></svg>
